source/images/logo-mobile.svg

<svg viewBox="0 0 33 38" fill="none" xmlns="http://www.w3.org/2000/svg"><defs><clipPath id="a"><path fill="#fff" fill-opacity="0" d="M0 0h33v38h-33z"/></clipPath></defs><path d="M0 0h33v38h-33z"/><g clip-path="url(#a)"><path d="M6.01 20.93v-2.28c6.62-.93 13.29-1.38 19.97-1.35 0 .61 0 1.23-.06 1.84 1.9-.86 3.9-1.48 5.95-1.84a16.83 16.83 0 0 0-6.77-8.28 16.3 16.3 0 0 0-19.93 2.07 17 17 0 0 0-4.99 9.51l5.83.33Zm20.96 3.55c-1.15 1.29-1.37 1.21-1.37 3.48v9.28a16.65 16.65 0 0 0 5.42-6.06 17.14 17.14 0 0 0 1.98-7.95c-.02-1.05-.12-2.1-.32-3.13a32.68 32.68 0 0 0-5.71 4.38Zm-20.68 1.5s-3.75-1.45-5.14-1.85a9.18 9.18 0 0 0-1.15-.28 16.93 16.93 0 0 0 8.59 14.15l-2.3-12.02Z" fill="#FDC305"/><path d="M26.03 17.29a92.75 92.75 0 0 0-1.38-16.64s-.14-1.3-.89-.24a14.5 14.5 0 0 0-1.18 3.98 68.56 68.56 0 0 0-12.65.34c-.78-2.71-2.16-3.98-2.82-3.72-.67.25-.72 3.34-.72 3.34l-.32 14.25c6.61-.92 13.29-1.35 19.96-1.31Z" fill="#F06351"/><path d="M12.29 14.14c0-.09.99.69 1.39.93.41.24.61.42.61.6 0 .17-.27.34-.63.34-.35 0-.9-.12-.99-.27h1.22c-.6-.46-1.14-1-1.6-1.6Zm7.4.11-1.08 1.35c0 .06-.16.35.18.3a7.1 7.1 0 0 0 1.21-.29c.11 0 .07-.2-.11-.18-.18.02-.68.05-.99.11l.83-1.27s.07-.13-.04-.02Zm-3.11 6.15c.46-.2.84-.56 1.08-1.01.28-.65 0-.92-.43-1.01a2.4 2.4 0 0 0-1.73.35c-.38.36-.33.72-.04 1.01.34.27.72.49 1.12.66Z" fill="#000"/><path d="M16.19 21.67c-.11.23-.27.43-.46.6-.28.24-.63.37-.99.39a2.06 2.06 0 0 1-1.45-.44c-.2-.12-.38-.27-.53-.44-.1-.11-.22-.2-.36-.26 0 0 .75 4.14 2.55 4.8 1.8.65 2.12-.76 2.18-1.15a5.74 5.74 0 0 0-.81-3.26c-.02-.31-.03-.11-.13-.24Z" fill="#F06351"/><path d="M14.56 22.82c-.46-.07-.9-.23-1.3-.47a3.42 3.42 0 0 1-1.05-1.07l.02-.05c0-.02.01-.03.03-.05l.04-.03.06-.01a.1.1 0 0 1 .05.01l.04.03c.5.7 1.26 1.18 2.09 1.32.33-.03.65-.13.93-.31s.52-.42.69-.7l.14-.2.1.22s.36.76.99.8c.62.04 1.04-.41 1.59-1.29l.05-.03.05-.01.05.01.05.03c.03.02.05.05.06.09.01.04.01.08-.01.11-.64 1.01-1.26 1.46-1.86 1.42a1.5 1.5 0 0 1-.64-.26c-.2-.13-.36-.31-.47-.51a2.25 2.25 0 0 1-1.7.95Z" fill="#000"/><path d="M25.98 19.11a57.94 57.94 0 0 0-5.02 5.25 31.44 31.44 0 0 1-5.24 4.94c-.22-.54-1.6-1.53-1.6-1.53s-3.1-2.16-5.13-3.86a32.83 32.83 0 0 1-3.1-3.03l-1.98-.11a22.38 22.38 0 0 0 11.88 8.89c.85-.14 3.24-1.88 5.02-3.29a58.15 58.15 0 0 0 5.89-5.96c.49-.59.88-1.28 1.13-2.02-1.09.4-1.85.72-1.85.72Z" fill="#F06351"/></g></svg>

<svg width="33.000000" height="38.000000" viewBox="0 0 33 38" fill="none" xmlns="http://www.w3.org/2000/svg" xmlns:xlink="http://www.w3.org/1999/xlink">
	<desc>
			Created with Pixso.
	</desc>
	<defs>
		<clipPath id="clip153_267">
			<rect id="logo-mobile " width="33.000000" height="38.000000" fill="white" fill-opacity="0"/>
		</clipPath>
	</defs>
	<rect id="logo-mobile " width="33.000000" height="38.000000" fill="#FFFFFF" fill-opacity="0"/>
	<g clip-path="url(#clip153_267)">
		<path id="Vector" d="M6.01 20.93L6.01 18.65C12.63 17.72 19.3 17.27 25.98 17.3C25.98 17.91 25.98 18.53 25.92 19.14C27.82 18.28 29.82 17.66 31.87 17.3C30.56 13.86 28.18 10.95 25.1 9.02C22.01 7.09 18.39 6.25 14.79 6.62C11.19 6.99 7.81 8.56 5.17 11.09C2.53 13.62 0.78 16.96 0.18 20.6L6.01 20.93Z" fill="#FDC305" fill-opacity="1.000000" fill-rule="nonzero"/>
		<path id="Vector" d="M26.97 24.48C25.82 25.77 25.6 25.69 25.6 27.96C25.6 28.88 25.6 32.91 25.6 37.24C27.87 35.71 29.73 33.63 31.02 31.18C32.31 28.74 32.99 26.01 33 23.23C32.98 22.18 32.88 21.13 32.68 20.1C30.63 21.34 28.71 22.81 26.97 24.48Z" fill="#FDC305" fill-opacity="1.000000" fill-rule="nonzero"/>
		<path id="Vector" d="M6.29 25.98C6.29 25.98 2.54 24.53 1.15 24.13C0.77 24.01 0.39 23.92 0 23.85C0.1 26.77 0.95 29.6 2.46 32.08C3.97 34.56 6.08 36.6 8.59 38L6.29 25.98Z" fill="#FDC305" fill-opacity="1.000000" fill-rule="nonzero"/>
		<path id="Vector" d="M26.03 17.29C26.07 11.71 25.61 6.14 24.65 0.65C24.65 0.65 24.51 -0.65 23.76 0.41C23.18 1.67 22.78 3.01 22.58 4.39C18.36 4.11 14.13 4.23 9.93 4.73C9.15 2.02 7.77 0.75 7.11 1.01C6.44 1.26 6.39 4.35 6.39 4.35L6.07 18.6C12.68 17.68 19.36 17.25 26.03 17.29Z" fill="#F06351" fill-opacity="1.000000" fill-rule="nonzero"/>
		<path id="Vector" d="M12.29 14.14C12.29 14.05 13.28 14.83 13.68 15.07C14.09 15.31 14.29 15.49 14.29 15.67C14.29 15.84 14.02 16.01 13.66 16.01C13.31 16.01 12.76 15.89 12.67 15.74L13.6 15.74L13.89 15.74C13.29 15.28 12.75 14.74 12.29 14.14Z" fill="#000000" fill-opacity="1.000000" fill-rule="nonzero"/>
		<path id="Vector" d="M19.69 14.25L18.61 15.6C18.61 15.66 18.45 15.95 18.79 15.9C19.2 15.84 19.61 15.74 20 15.61C20.11 15.61 20.07 15.41 19.89 15.43C19.71 15.45 19.21 15.48 18.9 15.54L19.73 14.27C19.73 14.27 19.8 14.14 19.69 14.25Z" fill="#000000" fill-opacity="1.000000" fill-rule="nonzero"/>
		<path id="Vector" d="M16.58 20.4C17.04 20.2 17.42 19.84 17.66 19.39C17.94 18.74 17.66 18.47 17.23 18.38C16.63 18.27 16.02 18.4 15.5 18.73C15.12 19.09 15.17 19.45 15.46 19.74C15.8 20.01 16.18 20.23 16.58 20.4Z" fill="#000000" fill-opacity="1.000000" fill-rule="nonzero"/>
		<path id="Vector" d="M16.19 21.67C16.08 21.9 15.92 22.1 15.73 22.27C15.45 22.51 15.1 22.64 14.74 22.66C14.22 22.7 13.7 22.55 13.29 22.22C13.09 22.1 12.91 21.95 12.76 21.78C12.66 21.67 12.54 21.58 12.4 21.52C12.4 21.52 13.15 25.66 14.95 26.32C16.75 26.97 17.07 25.56 17.13 25.17C17.19 24.03 16.91 22.89 16.32 21.91C16.3 21.6 16.29 21.8 16.19 21.67Z" fill="#F06351" fill-opacity="1.000000" fill-rule="nonzero"/>
		<path id="Vector" d="M14.56 22.82C14.1 22.75 13.66 22.59 13.26 22.35C12.87 22.1 12.52 21.77 12.26 21.38C12.24 21.37 12.23 21.36 12.23 21.34C12.22 21.32 12.21 21.3 12.21 21.28C12.21 21.26 12.22 21.25 12.23 21.23C12.23 21.21 12.24 21.2 12.26 21.18C12.27 21.17 12.28 21.16 12.3 21.15C12.32 21.14 12.34 21.14 12.36 21.14C12.37 21.14 12.39 21.14 12.41 21.15C12.43 21.16 12.44 21.17 12.45 21.18C12.95 21.88 13.71 22.36 14.54 22.5C14.87 22.47 15.19 22.37 15.47 22.19C15.75 22.01 15.99 21.77 16.16 21.49L16.3 21.29L16.4 21.51C16.4 21.51 16.76 22.27 17.39 22.31C18.01 22.35 18.43 21.9 18.98 21.02C18.99 21.01 19.01 21 19.03 20.99C19.04 20.98 19.06 20.98 19.08 20.98C19.1 20.98 19.12 20.98 19.13 20.99C19.15 21 19.17 21.01 19.18 21.02C19.21 21.04 19.23 21.07 19.24 21.11C19.25 21.15 19.25 21.19 19.23 21.22C18.59 22.23 17.97 22.68 17.37 22.64C17.14 22.6 16.92 22.52 16.73 22.38C16.53 22.25 16.37 22.07 16.26 21.87C16.06 22.15 15.81 22.38 15.52 22.54C15.22 22.7 14.9 22.8 14.56 22.82Z" fill="#000000" fill-opacity="1.000000" fill-rule="nonzero"/>
		<path id="Vector" d="M25.98 19.11C24.2 20.75 22.53 22.5 20.96 24.36C19.41 26.2 17.65 27.86 15.72 29.3C15.5 28.76 14.12 27.77 14.12 27.77C14.12 27.77 11.02 25.61 8.99 23.91C7.89 22.97 6.86 21.96 5.89 20.88L3.91 20.77C6.77 25.02 10.96 28.15 15.79 29.66C16.64 29.52 19.03 27.78 20.81 26.37C22.91 24.53 24.88 22.54 26.7 20.41C27.19 19.82 27.58 19.13 27.83 18.39C26.74 18.79 25.98 19.11 25.98 19.11Z" fill="#F06351" fill-opacity="1.000000" fill-rule="nonzero"/>
	</g>
</svg>
